libs/ui/packages/crypto-icons/src/svg/JPY.svg

<svg width="24" height="24" viewBox="0 0 24 24" fill="none">
<path fill-rule="evenodd" clip-rule="evenodd" d="M13.161 13.6583V15.0668H16.9583V16.7828H13.161V18.75H10.839V16.7828H7.04175V15.0668H10.839V13.6583H7.04175V11.9423H10.17L5.625 5.25H8.439L12.039 10.9005L15.6398 5.25H18.375L13.8105 11.9423H16.9583V13.6583H13.161Z" fill="#EAC749"/>
</svg>

<svg width="24" height="24" viewBox="0 0 24 24" fill="none"><path fill="#eac749" fill-rule="evenodd" d="M13.161 13.658v1.409h3.797v1.716h-3.797v1.967h-2.322v-1.967H7.042v-1.716h3.797v-1.409H7.042v-1.716h3.128L5.625 5.25h2.814l3.6 5.65 3.6-5.65h2.736l-4.565 6.692h3.148v1.716z" clip-rule="evenodd"/></svg>
